usr/share/icons/biglinux-icons-material/22/actions/podcast-amarok.svg

<svg xmlns="http://www.w3.org/2000/svg" viewBox="0 0 22 22">
  <defs id="defs3051">
    <style type="text/css" id="current-color-scheme">
      .ColorScheme-Text {
        color:#363636;
      }
      </style>
  </defs>
 <path 
     style="fill:currentColor;fill-opacity:1;stroke:none" 
     d="M 11 3 C 8.790861 3 7 4.7908568 7 7 L 10 7 L 10 8 L 7.15625 8 L 7 8 L 7 11 L 10 11 L 10 12 L 7.15625 12 C 7.6009217 13.724309 9.1368122 15 11 15 C 12.863188 15 14.399078 13.724309 14.84375 12 L 12 12 L 12 11 L 15 11 L 15 8 L 14.84375 8 L 12 8 L 12 7 L 15 7 C 15 4.7908568 13.209139 3 11 3 z M 5.09375 12 C 5.5127507 14.517145 7.4856132 16.48682 10 16.90625 L 10 17 L 9 19 L 13 19 L 12 17 L 12 16.90625 C 14.514386 16.48682 16.487249 14.517145 16.90625 12 L 15.90625 12 C 15.440019 14.278416 13.416246 16 11 16 C 8.5837543 16 6.5599813 14.278416 6.09375 12 L 5.09375 12 z "
	 class="ColorScheme-Text"
     />
</svg>

<svg xmlns="http://www.w3.org/2000/svg" viewBox="0 0 22 22"><path d="M11 3a4 4 0 0 0-4 4h3v1H7v3h3v1H7.156c.445 1.724 1.98 3 3.844 3 1.863 0 3.4-1.276 3.844-3H12v-1h3V8h-3V7h3a4 4 0 0 0-4-4zm-5.906 9A5.968 5.968 0 0 0 10 16.906V17l-1 2h4l-1-2v-.094A5.968 5.968 0 0 0 16.906 12h-1A5.017 5.017 0 0 1 11 16a5.017 5.017 0 0 1-4.906-4h-1z" style="fill:currentColor;fill-opacity:1;stroke:none;color:#dedede"/></svg>
